X:1
T:Полёт шмеля
T:The flight of the Bumblebee Korsakov arr. Rachmaninov 
T:Rimsky-Korsakov
T:Общественное достояние
T:Общественное достояние
T:Общественное достояние
T:Общественное достояние
C:Никола́й Ри́мский-Ко́рсаков
Z:Общественное достояние
%%score { 1 | ( 2 3 ) }
L:1/8
Q:1/4=180
M:2/4
K:C
V:1 treble nm="Piano"
V:2 bass 
V:3 bass 
V:1
"^Vivace" e'/^d'/=d'/^c'/ d'/c'/=c'/b/ | c'/b/_b/a/ ^g/=g/^f/=f/ |"_dim." e/^d/=d/^c/ d/c/=c/B/ | %3
 c/B/^A/=A/ ^G/=G/^F/=F/ | E/^D/=D/^C/ D/C/=C/B,/ | E/^D/=D/^C/ D/C/=C/B,/ | %6
!pp! E/^D/=D/^C/ =C/F/E/^D/ | E/^D/=D/^C/ =C/^C/D/^D/ | E/^D/=D/^C/ =C/F/E/^D/ | %9
 E/^D/=D/^C/ =C/^C/D/^D/ | E/^D/=D/^C/ D/C/=C/B,/ | C/^C/D/^D/ E/F/E/D/ | E/^D/=D/^C/ D/C/=C/B,/ | %13
 C/^C/D/^D/ E/^F/G/^G/ | A/^G/=G/^F/ =F/_B/A/^G/ | A/^G/=G/^F/ =F/^F/G/^G/ | %16
 A/^G/=G/^F/ =F/_B/A/^G/ | A/^G/=G/^F/ =F/^F/G/^G/ | A/^G/=G/^F/ G/F/=F/E/ | F/^F/G/^G/ A/_B/A/G/ | %20
 A/^G/=G/^F/ G/F/=F/E/ | F/^F/G/^G/ A/_B/A/G/ |!pp! A/A,/A,/A,/!<(! A,/A,/A,/A,/!<)! | z4 | %24
 A,/A,/A,/A,/!<(! A,/A,/A,/A,/!<)! | z4 | A,/A,/A,/A,/ z2 | x4 |!mf! ^C/A,/C/A,/ C/A,/C/A,/ | %29
 ^C/A,/C/A,/ C/A,/C/A,/ |!pp! D/D/D/D/!<(! D/D/D/D/!<)! | z4 | D/D/D/D/!<(! D/D/D/D/!<)! | z4 | %34
 D/D/D/D/ z2 | %35
[I:staff +1] D/[I:staff -1]D/[I:staff +1]^C/[I:staff -1]_E/[I:staff +1] =C/[I:staff -1]=E/[I:staff +1]B,/[I:staff -1]F/ | %36
!mf! ^F/D/F/D/ F/D/F/D/ | ^F/D/F/D/ F/D/F/D/ |!pp! d/^c/=c/=B/ _B/_e/d/^c/ | %39
 d/^c/=c/=B/ _B/=B/c/^c/ | d/^c/=c/B/ c/B/_B/A/ | _B/=B/c/^c/ =c/^c/d/^d/ | e/^d/=d/^c/ d/c/=c/B/ | %43
 c/B/_B/A/ ^G/=G/^F/=F/ | E/F/E/^D/ z/!p! F/!p!E/!p!D/ | %45
!p! E/!p!F/!p!E/!p!^D/!p! E/!p!F/!p!E/!p!D/ | z/!p! F/!p!E/!p!^D/ z/!p! F/!p!E/!p!D/ | %47
!p! E/!p!F/!p!E/!p!^D/!p! E/!p!F/!p!E/!p!D/ |!p! E/^D/=D/^C/ D/C/=C/B,/ | %49
[I:staff +1] C/B,/_B,/A,/ ^G,/=G,/^F,/=F,/ |[I:staff -1] z2!mf! .[ee']!mf!.[cc'] | %51
!mf! .[Aa]!mf!.[Ff]!mf! .[Aa]!mf!.[cc'] |!mf! .[ee']2!mf! .[ee']!mf!.[cc'] | %53
 .[Aa].[Ff] .[Aa].[cc'] | .[ee'] z"_cresc." z2 | z2 z/ F/^F/G/ | ^G/A/^A/B/ c/^c/d/^d/ | %57
 e/f/e/^d/ e/f/e/d/ |!mf! e/^d/=d/^c/ =c/f/e/^d/ | e/^d/=d/^c/ =c/^c/d/^d/ | %60
 e/^d/=d/^c/ =c/f/e/^d/ | e/^d/=d/^c/ =c/^c/d/^d/ | e/^d/=d/^c/ d/c/=c/B/ | c/^c/d/^d/ e/f/e/d/ | %64
 e/^d/=d/^c/ d/c/=c/B/ | c/^c/d/^d/ e/^f/g/^g/ | a/^g/=g/^f/ =f/_b/a/^g/ | %67
 a/^g/=g/^f/ =f/^f/g/^g/ | a/^g/=g/^f/ =f/_b/a/^g/ | a/^g/=g/^f/ =f/^f/g/^g/ | %70
 a/^g/=g/^f/ g/f/=f/e/ | f/^f/g/^g/ a/_b/a/g/ |"_cresc." a/^g/=g/^f/ =f/^f/g/^g/ | %73
 a/b/c'/d'/ e'/f'/e'/^d'/ |:!f! e'/^d'/=d'/^c'/ =c'/f'/e'/^d'/ | e'/^d'/=d'/^c'/ =c'/^c'/d'/^d'/ | %76
 e'/^d'/=d'/^c'/ =c'/f'/e'/^d'/ | e'/^d'/=d'/^c'/ =c'/^c'/d'/^d'/ | e'!mf!^G/A/ _B/=B/c/^c/ | %79
 d/^c/=c/B/ c/B/_B/A/ | ^G/A/^A/B/ c/^c/d/^d/ | e/f/e/^d/ e/f/e/d/ | e^G/A/ _B/=B/c/^c/ | %83
 d/^c/=c/B/ c/B/_B/A/ | ^G/A/^A/=B/ c/^c/d/^d/ |1 e/^f/^g/a/ b/c'/d'/e'/ :|2 %86
 e/f/e/^d/ e/^f/g/^g/ ||!f! a/^g/=g/^f/"_dim." g/f/=f/e/ | f/e/^d/=d/ ^c/=c/B/_B/ | %89
!mf! A/^G/=G/^F/"_dim." G/F/=F/E/ | F/E/^D/=D/ ^C/=C/B,/_B,/ | z/!<(! A,/A,/A,/!<)! z2 | %92
[I:staff +1] A,/[I:staff -1]A,/[I:staff +1]^G,/[I:staff -1]B,/[I:staff +1] =G,/[I:staff -1]^C/[I:staff +1]=F,/[I:staff -1]D/ | %93
 z/!<(! E/E/E/!<)! !>!F/^D/F/D/ | %94
[I:staff +1] E,/[I:staff -1]E/[I:staff +1][=D,E,]/[I:staff -1][E^F]/[I:staff +1] [C,E,]/[I:staff -1][EG]/[I:staff +1][B,,E,]/[I:staff -1][D^G]/ | %95
 [CA] z!pp!"_m.d."[I:staff +1] (E,/=F,/^F,/G,/ | ^G,/A,/_B,/=B,/[I:staff -1] C/^C/D/^D/ | %97
 E/F/^F/G/ ^G/A/_B/=B/ | c/^c/d/^d/ e/^f/g/^g/ | a) z z2 | .[CEA]2 z2 | .A,2 z2 | !fermata!z4 |] %103
V:2
 [E,^G,B,D] z z2 | z4 | [E,,B,,D,^G,] z z2 | z4 | z4 | z4 | [A,,E,C] z z2 | %7
 [A,,E,C] z [D,^F,A,] z | [A,,E,C] z z2 | [A,,E,C] z [D,^F,A,] z | [A,,E,C] z [=F,A,] z | %11
 [E,A,] z [D,E,^G,B,] z | [C,E,A,] z [F,A,] z | [E,A,] z [D,E,^G,B,] z | [^C,=G,A,] z [D,F,A,] z | %15
 [F,A,D] z [D,G,=B,] z | [F,A,D] z z2 | [F,A,D] z [D,G,=B,] z | [F,A,D] z [G,_B,D] z | %19
 [F,A,D] z [E,G,A,^C] z | [F,A,D] z [D,G,_B,] z | [D,F,A,] z [^C,E,G,A,] z | [D,F,A,] z z2 | %23
 !>!_B,/^G,/B,/G,/ B,/G,/B,/G,/ | z4 | !>!_B,/^G,/B,/G,/ B,/G,/B,/G,/ | z2 !>!_B,/^G,/B,/G,/ | %27
!<(! A,/[I:staff -1]A,/[I:staff +1]^G,/[I:staff -1]_B,/[I:staff +1] =G,/[I:staff -1]=B,/[I:staff +1]^F,/[I:staff -1]C/!<)! | %28
[I:staff +1] =F,4- | F,4 | [^F,A,] z z2 |[K:treble]!<(! !>!_E/^C/E/C/ E/C/E/C/!<)! | z4 | %33
 !>!_E/^C/E/C/ E/C/E/C/ | z2 !>!_E/^C/E/C/ |!<(! x4!<)! |[K:bass] _B,4- | B,4 | [G,_B,D] z z2 | %39
[K:treble] [_B,DG] z [C_EG] z | [_B,DG] z[K:bass] [^F,C_E] z | [G,_B,D] z [=F,A,D] z | %42
 [E,^G,D] z z2 | z4 | z2!mf! .E!mf!.C |!mf! .A,!mf!.F,!mf! .A,!mf!.C |!mf! .E2!mf! .E!mf!.C | %47
!mf! .A,!mf!.F,!mf! .A,!mf!.C |[I:staff -1] E[I:staff +1] z z2 | x4 | %50
 E,/F,/E,/^D,/!p! E,/!p!F,/!p!E,/!p!D,/ |!p! E,/!p!F,/!p!E,/!p!^D,/!p! E,/!p!F,/!p!E,/!p!D,/ | %52
!p! E,/!p!F,/!p!E,/!p!^D,/!p! E,/!p!F,/!p!E,/!p!D,/ | E,/F,/E,/^D,/ E,/F,/E,/D,/ | %54
 E,/F,/^F,/G,/ ^G,/A,/^A,/B,/ | C/^C/D/^D/ E/ z/ z | z4 | z4 | [A,,E,C] z z2 | %59
 [A,,E,C] z [^F,,D,A,] z | [A,,E,C] z z2 | [A,,E,C] z [^F,,D,A,] z | [A,,E,C] z [=F,A,D] z | %63
 [E,A,C] z [D,E,^G,B,] z | [C,A,E] z [F,A,D] z | [E,A,C] z [D,E,^G,B,] z | [^C,A,E] z [D,A,F] z | %67
 [D,A,F] z [=B,,G,D] z | [D,A,F] z z2 | [D,A,F] z [=B,,G,D] z | [D,A,F] z [_B,,G,D] z | %71
 [A,,F,D] z [G,,^C,E,A,] z | [F,,D,A,] z [D,F,A,] z | [C,E,A,] z [B,,D,^G,B,] z |: %74
 [A,,E,C][E,C] z2 | [A,,E,C] z [^F,,D,A,] z | [A,,E,C][E,C] z2 | [A,,E,C] z [^F,,D,A,] z | %78
 [A,,E,C] z z2 | [F,A,] z z2 | [E,CA] z z2 | [E,^G,DE] z z2 | [A,CE] z z2 | [F,A,] z z2 | %84
 [E,CA] z z2 |1 [E,^G,DE] z z2 :|2 [E,^G,DE] z z2 || [A,CE] z [A,^CG] z | [A,DF] z z2 | %89
 [A,,C,E,] z [A,,^C,G,] z | [A,,D,F,] z z2 | [A,,A,]/ z/ z !>!_B,/^G,/B,/G,/ | x4 | %93
 [E,E]/ z/ z !>!^D,/F,/D,/F,/ | x4 | [A,,E,] z x2 | z4 | .[A,,C,E,A,] z z2 | .[A,,C,E,A,] z z2 | %99
 .[A,,C,E,A,] z z2 | .A,2 z2 | .[A,,,A,,]2 z2 | !fermata!z4 |] %103
V:3
 x4 | x4 | x4 | x4 | x4 | x4 | x4 | x4 | x4 | x4 | x4 | x4 | x4 | x4 | x4 | x4 | x4 | x4 | x4 | %19
 x4 | x4 | x4 | x4 | x4 | x4 | x4 | x4 | x4 | x4 | x4 | x4 |[K:treble] x4 | x4 | x4 | x4 | x4 | %36
[K:bass] x4 | x4 | x4 |[K:treble] x4 | x2[K:bass] x2 | x4 | x4 | x4 | x4 | x4 | x4 | x4 | x4 | x4 | %50
 x4 | x4 | x4 | x4 | x4 | x4 | x4 | x4 | x4 | x4 | x4 | x4 | x4 | x4 | x4 | x4 | x4 | x4 | x4 | %69
 x4 | x4 | x4 | x4 | x4 |: x4 | x4 | x4 | x4 | x2 .A.F | .D.B, .D.F | x4 | x4 | x2 .A.F | %83
 .D.B, .D.F | x4 |1 x4 :|2 x4 || x4 | x4 | x4 | x4 | x4 | x4 | x4 | x4 | x4 | x4 | x4 | x4 | x4 | %100
 x4 | x4 | x4 |] %103

